X:1
T:Dink's Song (Noah's Dove)
M:3/4
L:1/8
K:D
 z2 z DD F| A3 AB B| A3 FF F/2F/2| F/2 F3/2- F D/2D/2 EF| B,3 z D3/2 F/2|\
 d4- dB| A F3 E3/2 B,/2| D4 z2|
